X:10219
T:Manitoba Special
C:Andy De Jarlis
M:2/4
L:1/16
K:D
Ac|defd edBc|dBAF DEFD|E2=cd =cAG=F|E=CG,=C EGFE|!
D2FA defd|edBc d2AF|GABG Aceg|fddc d2:|!
|:eg|faab afde|fdeg f2ec|dcdA B2AF|GEFD E2eg|!
faab afde|fdeg f2ec|dcdA B2AF|EDEF D2:|!
